!!!COM:	Bach, Johann Sebastian
!!!CDT:	1685/02/21/-1750/07/28/
!!!OTL@@DE:	O Herre Gott, dein g&ouml;ttlich Wort
!!!SCT:	BWV 185/5
!!!PC#:	14
!!!AGN:	chorale
**harm	**kern	**kern	**kern	**kern
*	*ICvox	*ICvox	*ICvox	*ICvox
*	*Ibass	*Itenor	*Ialto	*Isoprn
*	*I"Bass	*I"Tenor	*I"Alto	*I"Soprano
*>[A,A,B]	*>[A,A,B]	*>[A,A,B]	*>[A,A,B]	*>[A,A,B]
*>norep[A,B]	*>norep[A,B]	*>norep[A,B]	*>norep[A,B]	*>norep[A,B]
*>A	*>A	*>A	*>A	*>A
*	*	*oclefC4	*oclefC3	*oclefC1
*	*clefF4	*clefGv2	*clefG2	*clefG2
*k[f#]	*k[f#]	*k[f#]	*k[f#]	*k[f#]
*G:	*G:	*G:	*G:	*G:
*M4/4	*M4/4	*M4/4	*M4/4	*M4/4
*met(c)	*met(c)	*met(c)	*met(c)	*met(c)
*MM100	*MM100	*MM100	*MM100	*MM100
I	4G	4B	4d	4g
=1	=1	=1	=1	=1
vi	4E	4B	4e	4g
iii	4BB	4B	4d	4f#
IV	4C	4G	4c	4e
V	4D	4F#	4c	4d
=2	=2	=2	=2	=2
vi	4E	4G	4B	4g
V	4D	4F#	4d	4a
I;	4GG;	4G;	4d;	4b;
V	4D	4F#	4d	4a
=3	=3	=3	=3	=3
iii	4BB	4F#	4d	4b
IV6	8EEL	8GL	8eL	8ccL
vii%7	8FF#J	8AJ	8eJ	8ccJ
I	4GG	4B	4d	4b
V6	4FF#	4d	4f#	4a
=4	=4	=4	=4	=4
IV6	4EE	4c	4g	4cc
IV7	4C	4e	4g	4b
V7	2D	2c	2f#	2a
=5	=5	=5	=5	=5
I;	2.GG;	2.B;	2.d;	2.g;
=:|!	=:|!	=:|!	=:|!	=:|!
*>B	*>B	*>B	*>B	*>B
I	4G	4B	4d	4g
=6	=6	=6	=6	=6
V	4D	4F#	4d	4a
I	4GG	4G	4d	4b
IV;	4C;	4G;	4e;	4g;
I6	4BB	4B	4d	4g
=7	=7	=7	=7	=7
V65/V	4C#	4G	4e	4a
e:V6	4D#	4F#	4f#	4b
i;	4E;	4B;	4e;	4g;
i	4E	4G	4B	4e
=8	=8	=8	=8	=8
D:V6	4C#	4E	4A	4a
V7	4AA	4A	4c#	4g
I	4D	4A	4d	4f#
IV6	4BB	4G	4d	4g
=9	=9	=9	=9	=9
ii65	4GG	4B	4d	4e
V7	4AA	4G	4c#	4e
I;	4D;	4F#;	4A;	4d;
vi	4BB	4F#	4B	4d
=10	=10	=10	=10	=10
ii	8EEL	8GL	8BL	8gL
viio6	8EEJ	8GJ	8c#J	8gJ
I6	4FF#	4A	4d	4f#
G:ii	4AA	4A	4c	4e
V2	4C	4F#	4A	4d
=11	=11	=11	=11	=11
I6	4BB	4G	4d	4g
V	4D	4F#	4d	4a
I;	4GG;	4G;	4d;	4b;
V	8DL	8F#L	8dL	8aL
V2	8CJ	8F#J	8dJ	8aJ
=12	=12	=12	=12	=12
iii	4BB	4B	4f#	4dd
vi7	8EL	8BL	8gL	8ddL
viio	8F#J	8AJ	8aJ	8ccJ
I	4G	4B	4d	4b
V6	4F#	4d	4f#	4a
=13	=13	=13	=13	=13
IV6	4E	4c	4g	4cc
IV7	4C	4e	4g	4b
V(54)	4D	4A	4g	4a
V7	4D	4c	4f#	4a
=14	=14	=14	=14	=14
I;	2.GG;	2.B;	2.d;	2.g;
==	==	==	==	==
*-	*-	*-	*-	*-
!!!YOR1: 371 vierstimmige Choralges&auml;nge von Johann Sebastian Bach, 
!!!YOR2: 4th ed. by Alfred D&ouml;rffel (Leipzig: Breitkopf und H&auml;rtel, 
!!!YOR2: c.1875). 178 pp. Plate "V.A.10".  reprint: J.S. Bach, 371 Four-Part 
!!!YOR4: Chorales (New York: Associated Music Publishers, Inc., c.1940).
!!!SMS: B&H, 4th ed, Alfred D&ouml;rffel, c.1875, plate V.A.10
!!!EED:  Craig Stuart Sapp
!!!EEV:  2009/05/22
!!!ONB: Fixed alignment error in measure 10 on 2011/02/07/.
